assets/img/particl-logo-dark.svg

<svg width="714" height="287" viewBox="0 0 714 287" fill="none" xmlns="http://www.w3.org/2000/svg">
<path d="M365.977 144.818C365.977 135.931 360.05 130.362 351.875 130.362C343.699 130.362 337.773 135.931 337.773 144.818C337.773 153.706 343.699 159.274 351.875 159.274C360.05 159.274 365.977 153.706 365.977 144.818ZM383.749 144.818C383.749 162.473 370.952 176.102 355.431 176.102C347.491 176.102 341.683 173.375 337.773 168.874V198.142H320V115.194H337.773V120.763C341.683 116.261 347.491 113.535 355.431 113.535C370.952 113.535 383.749 127.163 383.749 144.818Z" fill="#212121"/>
<path d="M437.339 144.818C437.339 135.931 431.414 130.362 423.24 130.362C415.064 130.362 409.138 135.931 409.138 144.818C409.138 153.706 415.064 159.274 423.24 159.274C431.414 159.274 437.339 153.706 437.339 144.818ZM455.115 115.194V174.442H437.339V168.874C433.429 173.375 427.623 176.102 419.684 176.102C404.16 176.102 391.364 162.473 391.364 144.818C391.364 127.163 404.16 113.535 419.684 113.535C427.623 113.535 433.429 116.262 437.339 120.763V115.194H455.115Z" fill="#212121"/>
<path d="M504.383 114.009V134.153C497.035 132.969 486.607 135.93 486.607 147.662V174.442H468.833V115.194H486.607V125.741C488.977 117.802 496.916 114.009 504.383 114.009Z" fill="#212121"/>
<path d="M537.153 132.257V153.231C537.153 158.326 541.537 158.801 549.359 158.326V174.442C526.133 176.812 519.38 169.822 519.38 153.231V132.257H509.901V115.194H519.38V103.938L537.153 98.6047V115.194H549.359V132.257H537.153Z" fill="#212121"/>
<path d="M561.239 115.194H579.013V174.442H561.239V115.194ZM559.461 99.3153C559.461 93.5094 564.32 88.6509 570.128 88.6509C575.932 88.6509 580.791 93.5094 580.791 99.3153C580.791 105.121 575.932 109.98 570.128 109.98C564.32 109.98 559.461 105.121 559.461 99.3153Z" fill="#212121"/>
<path d="M589.061 144.818C589.061 127.163 602.453 113.535 620.464 113.535C631.958 113.535 642.147 119.579 647.243 128.703L631.719 137.709C629.706 133.56 625.439 131.072 620.225 131.072C612.524 131.072 606.837 136.643 606.837 144.818C606.837 152.994 612.524 158.563 620.225 158.563C625.439 158.563 629.823 156.076 631.719 151.928L647.243 160.816C642.147 170.057 632.074 176.102 620.464 176.102C602.453 176.102 589.061 162.473 589.061 144.818Z" fill="#212121"/>
<path d="M655.817 87.9398H673.591V174.442H655.817V87.9398Z" fill="#212121"/>
<path d="M714 144.818C714 135.931 708.075 130.362 699.901 130.362C691.725 130.362 685.798 135.931 685.798 144.818C685.798 153.706 691.725 159.274 699.901 159.274C708.075 159.274 714 153.706 714 144.818Z" fill="#45D492"/>
<path d="M164.222 175.977H99.0176V110.469H164.222V175.977ZM262.609 66.3451C259.913 50.7473 251.338 35.979 238.897 26.155C227.35 16.6586 212.554 11.5563 197.627 11.5436C153.359 11.5297 109.053 11.4905 64.7847 11.5563C41.677 11.8193 19.8453 25.1941 8.6012 45.2897C2.35449 56.0746 0.0126895 68.2001 0 80.562C0.0265327 120.885 -0.0126895 161.233 0.0126895 201.556C-0.0657549 210.933 0.341464 219.942 3.27505 228.937C9.79747 249.783 27.3944 266.656 48.4106 272.534C42.0577 267.471 39.2441 260.422 37.1792 252.794C32.9051 236.065 32.5763 218.692 33.2604 201.556C33.1947 161.22 33.2858 120.885 33.2074 80.562C33.2731 73.6185 33.7865 67.0949 37.3372 60.9532C42.8076 51.1557 53.4737 44.6056 64.7847 44.751C106.856 44.7244 148.981 44.7636 191.051 44.7371C197.404 44.7509 203.177 44.2768 209.254 46.5794C219.354 49.9317 227.363 58.9667 229.572 69.3571C230.821 75.4596 230.493 82.2324 230.505 88.4526V206.816C230.505 212.629 229.862 218.31 227.363 223.624C222.208 234.408 211.056 241.891 198.97 241.668C165.669 241.72 132.33 241.654 99.0303 241.694C98.9657 230.844 98.9784 219.981 99.0176 209.118C126.201 209.118 153.373 209.078 180.557 209.144C186.409 209.46 193.143 206.501 195.839 201.109C197.364 198.36 197.614 195.426 197.68 192.363C197.653 159.471 197.667 126.593 197.667 93.7002C197.93 87.6116 194.984 82.1793 189.592 79.2861C185.094 76.6697 180.28 77.34 175.27 77.2477C144.153 77.3261 112.998 77.2085 81.8948 77.3134C72.9902 77.0896 65.5738 84.836 65.8495 93.7002C65.7179 140.954 65.8495 188.47 65.7837 235.749C66.034 245.139 65.7306 254.043 71.1756 262.171C75.3055 268.891 82.2893 272.297 89.7981 273.784C98.6761 275.217 107.171 274.876 116.088 274.888C143.272 274.901 170.444 274.876 197.627 274.915C211.147 275.034 224.312 270.654 235.412 263.012C247.313 254.24 256.547 242.141 260.794 227.885C263.727 218.245 263.674 208.881 263.727 198.925C263.727 161.22 263.74 123.528 263.727 85.8224C263.674 79.3518 263.609 72.7498 262.609 66.3451" fill="#46D593"/>
</svg>

<svg width="707" height="287" fill="none" xmlns="http://www.w3.org/2000/svg"><path d="M365.955 144.91c0-8.897-5.933-14.471-14.116-14.471-8.184 0-14.117 5.574-14.117 14.471 0 8.896 5.933 14.472 14.117 14.472 8.183 0 14.116-5.576 14.116-14.472zm17.791 0c0 17.673-12.811 31.315-28.347 31.315-7.948 0-13.762-2.729-17.677-7.235v29.298h-17.79v-83.032h17.79v5.574c3.915-4.506 9.729-7.236 17.677-7.236 15.536 0 28.347 13.643 28.347 31.316zM437.39 144.91c0-8.897-5.93-14.471-14.113-14.471-8.185 0-14.116 5.574-14.116 14.471 0 8.896 5.931 14.472 14.116 14.472 8.183 0 14.113-5.576 14.113-14.472zm17.794-29.654v59.308H437.39v-5.574c-3.914 4.506-9.726 7.235-17.673 7.235-15.54 0-28.348-13.642-28.348-31.315 0-17.673 12.808-31.316 28.348-31.316 7.947 0 13.759 2.73 17.673 7.236v-5.574h17.794zM504.503 114.07v20.165c-7.356-1.186-17.795 1.778-17.795 13.522v26.807h-17.791v-59.308h17.791v10.557c2.373-7.948 10.32-11.743 17.795-11.743zM537.305 132.337v20.995c0 5.1 4.39 5.574 12.219 5.1v16.132c-23.249 2.373-30.009-4.625-30.009-21.232v-20.995h-9.489v-17.081h9.489v-11.269l17.79-5.337v16.606h12.219v17.081h-12.219zM561.418 115.256h17.792v59.308h-17.792v-59.308zm-1.78-15.894c0-5.812 4.863-10.676 10.677-10.676 5.811 0 10.675 4.864 10.675 10.675 0 5.812-4.864 10.676-10.675 10.676-5.814 0-10.677-4.864-10.677-10.675zM589.267 144.91c0-17.673 13.406-31.316 31.436-31.316 11.505 0 21.704 6.051 26.806 15.184l-15.539 9.015c-2.016-4.153-6.287-6.642-11.506-6.642-7.71 0-13.403 5.575-13.403 13.759 0 8.185 5.693 13.76 13.403 13.76 5.219 0 9.607-2.491 11.506-6.644l15.539 8.898c-5.102 9.251-15.184 15.301-26.806 15.301-18.03 0-31.436-13.642-31.436-31.315zM656.093 87.973h17.792v86.591h-17.792v-86.59z" fill="#212120"/><path d="M684.648 142.2c0-5.811 4.864-10.675 10.678-10.675 5.811 0 10.674 4.864 10.674 10.675 0 5.812-4.863 10.676-10.674 10.676-5.814 0-10.678-4.864-10.678-10.676zM164.222 175.977H99.018v-65.508h65.204v65.508zm98.387-109.631c-2.696-15.598-11.271-30.367-23.712-40.19-11.547-9.497-26.343-14.6-41.27-14.612-44.268-.014-88.574-.053-132.842.013C41.677 11.82 19.845 25.195 8.6 45.29 2.354 56.075.013 68.2 0 80.563c.027 40.322-.013 80.67.013 120.993-.079 9.378.328 18.386 3.262 27.382 6.522 20.845 24.12 37.719 45.136 43.596-6.353-5.063-9.167-12.111-11.232-19.74-4.274-16.728-4.603-34.101-3.919-51.238-.065-40.335.026-80.671-.053-120.994.066-6.943.58-13.467 4.13-19.608 5.47-9.798 16.137-16.348 27.448-16.203 42.071-.026 84.196.013 126.266-.013 6.353.013 12.126-.46 18.203 1.842 10.1 3.352 18.109 12.387 20.318 22.778 1.249 6.102.921 12.875.933 19.095v118.363c0 5.813-.643 11.495-3.142 16.808-5.155 10.784-16.307 18.267-28.393 18.045-33.301.052-66.64-.014-99.94.025a3407.466 3407.466 0 0 1-.012-32.575c27.183 0 54.355-.04 81.539.025 5.852.316 12.586-2.643 15.282-8.034 1.525-2.749 1.775-5.683 1.841-8.747-.027-32.891-.013-65.77-.013-98.662.263-6.089-2.683-11.521-8.075-14.414-4.498-2.617-9.312-1.947-14.322-2.039-31.117.079-62.272-.039-93.375.066C72.99 77.09 65.574 84.837 65.85 93.7c-.132 47.253 0 94.77-.066 142.049.25 9.39-.053 18.293 5.392 26.422 4.13 6.719 11.113 10.126 18.622 11.613 8.878 1.433 17.373 1.091 26.29 1.104 27.184.013 54.356-.013 81.539.026 13.52.119 26.685-4.261 37.785-11.902 11.901-8.772 21.135-20.871 25.382-35.127 2.933-9.641 2.88-19.005 2.933-28.96 0-37.705.013-75.398 0-113.103-.053-6.47-.118-13.073-1.118-19.477" fill="#46D593"/><path d="M365.955 144.91c0-8.897-5.933-14.471-14.116-14.471-8.184 0-14.117 5.574-14.117 14.471 0 8.896 5.933 14.472 14.117 14.472 8.183 0 14.116-5.576 14.116-14.472zm17.791 0c0 17.673-12.811 31.315-28.347 31.315-7.948 0-13.762-2.729-17.677-7.235v29.298h-17.79v-83.033h17.79v5.575c3.915-4.506 9.729-7.236 17.677-7.236 15.536 0 28.347 13.643 28.347 31.316zM437.39 144.91c0-8.897-5.93-14.471-14.113-14.471-8.185 0-14.116 5.574-14.116 14.471 0 8.896 5.931 14.472 14.116 14.472 8.183 0 14.113-5.576 14.113-14.472zm17.794-29.655v59.309H437.39v-5.574c-3.914 4.506-9.726 7.235-17.673 7.235-15.54 0-28.348-13.642-28.348-31.315 0-17.673 12.808-31.316 28.348-31.316 7.947 0 13.759 2.73 17.673 7.236v-5.575h17.794zM504.503 114.07v20.164c-7.356-1.185-17.795 1.779-17.795 13.523v26.807h-17.791v-59.308h17.791v10.557c2.373-7.948 10.32-11.743 17.795-11.743zM537.305 132.337v20.995c0 5.1 4.39 5.574 12.219 5.1v16.132c-23.249 2.373-30.009-4.625-30.009-21.232v-20.995h-9.489v-17.081h9.489v-11.269l17.79-5.337v16.606h12.219v17.081h-12.219zM561.418 115.255h17.792v59.309h-17.792v-59.309zm-1.78-15.894c0-5.812 4.863-10.675 10.677-10.675 5.811 0 10.675 4.863 10.675 10.675s-4.864 10.676-10.675 10.676c-5.814 0-10.677-4.864-10.677-10.676zM589.267 144.91c0-17.673 13.406-31.316 31.436-31.316 11.505 0 21.704 6.051 26.806 15.184l-15.539 9.015c-2.016-4.153-6.287-6.642-11.506-6.642-7.71 0-13.403 5.575-13.403 13.759 0 8.185 5.693 13.76 13.403 13.76 5.219 0 9.607-2.491 11.506-6.644l15.539 8.898c-5.102 9.251-15.184 15.301-26.806 15.301-18.03 0-31.436-13.642-31.436-31.315zM656.093 87.973h17.792v86.591h-17.792V87.973z" fill="#212121"/><path d="M684.648 142.2c0-5.811 4.864-10.675 10.678-10.675 5.811 0 10.674 4.864 10.674 10.675 0 5.812-4.863 10.676-10.674 10.676-5.814 0-10.678-4.864-10.678-10.676zM164.222 175.977H99.018v-65.508h65.204v65.508zm98.387-109.631c-2.696-15.598-11.271-30.367-23.712-40.19-11.547-9.497-26.343-14.6-41.27-14.612-44.268-.014-88.574-.053-132.842.013C41.677 11.82 19.845 25.195 8.6 45.29 2.354 56.075.013 68.2 0 80.563c.027 40.322-.013 80.67.013 120.993-.079 9.378.328 18.386 3.262 27.382 6.522 20.845 24.12 37.719 45.136 43.596-6.353-5.063-9.167-12.111-11.232-19.74-4.274-16.728-4.603-34.101-3.919-51.238-.065-40.335.026-80.671-.053-120.994.066-6.943.58-13.467 4.13-19.608 5.47-9.798 16.137-16.348 27.448-16.203 42.071-.026 84.196.013 126.266-.013 6.353.013 12.126-.46 18.203 1.842 10.1 3.352 18.109 12.387 20.318 22.778 1.249 6.102.921 12.875.933 19.095v118.363c0 5.813-.643 11.495-3.142 16.808-5.155 10.784-16.307 18.267-28.393 18.045-33.301.052-66.64-.014-99.94.025a3407.466 3407.466 0 0 1-.012-32.575c27.183 0 54.355-.04 81.539.025 5.852.316 12.586-2.643 15.282-8.034 1.525-2.749 1.775-5.683 1.841-8.747-.027-32.891-.013-65.77-.013-98.662.263-6.089-2.683-11.521-8.075-14.414-4.498-2.617-9.312-1.947-14.322-2.039-31.117.079-62.272-.039-93.375.066C72.99 77.09 65.574 84.837 65.85 93.7c-.132 47.253 0 94.77-.066 142.049.25 9.39-.053 18.293 5.392 26.422 4.13 6.719 11.113 10.126 18.622 11.613 8.878 1.433 17.373 1.091 26.29 1.104 27.184.013 54.356-.013 81.539.026 13.52.119 26.685-4.261 37.785-11.902 11.901-8.772 21.135-20.871 25.382-35.127 2.933-9.641 2.88-19.005 2.933-28.96 0-37.705.013-75.398 0-113.103-.053-6.47-.118-13.073-1.118-19.477" fill="#46D593"/></svg>
